src/components/ReferenciasVisuais/aros/gota.svg

<?xml version="1.0" encoding="UTF-8" standalone="no"?>
<!-- Created with Inkscape (http://www.inkscape.org/) -->

<svg
   width="207.80135mm"
   height="118.17938mm"
   viewBox="0 0 207.80135 118.17938"
   version="1.1"
   id="svg1"
   xml:space="preserve"
   xmlns:inkscape="http://www.inkscape.org/namespaces/inkscape"
   xmlns:sodipodi="http://sodipodi.sourceforge.net/DTD/sodipodi-0.dtd"
   xmlns="http://www.w3.org/2000/svg"
   xmlns:svg="http://www.w3.org/2000/svg"><sodipodi:namedview
     id="namedview1"
     pagecolor="#ffffff"
     bordercolor="#000000"
     borderopacity="0.25"
     inkscape:showpageshadow="2"
     inkscape:pageopacity="0.0"
     inkscape:pagecheckerboard="0"
     inkscape:deskcolor="#d1d1d1"
     inkscape:document-units="mm"><inkscape:page
       x="0"
       y="0"
       width="207.80135"
       height="118.17938"
       id="page2"
       margin="0"
       bleed="0" /></sodipodi:namedview><defs
     id="defs1" /><g
     inkscape:label="Camada 1"
     inkscape:groupmode="layer"
     id="layer1"
     transform="translate(-0.92012191,-101.99233)"><g
       style="overflow:visible;stroke-width:14.1732;stroke-dasharray:none"
       id="g4"
       transform="matrix(0.35277778,0,0,0.35277778,-77.565106,58.313265)"><path
         d="M 516.9994,451.7175 H 258.3157 c -6.7043,0.1495 -14.7699,-2.4027 -20.324,-7.0614 -5.5542,-4.6587 -8.5968,-11.424 -8.4186,-17.0475 v -29.2663 c 0,-11.8288 1.662,-23.6279 4.8369,-35.1695 2.4256,-8.8175 5.7341,-17.4848 10.0944,-25.7377 7.5273,-14.2474 18.1891,-27.26 30.5426,-38.9282 12.3946,-11.7071 26.4923,-22.0608 39.3715,-31.8253 15.1005,-11.4485 28.526,-22.0872 42.4294,-32.0872 31.6658,-22.7759 65.8103,-42.2391 160.1515,-102.3758 94.3412,60.1367 128.4856,79.5999 160.1515,102.3758 13.9034,10 27.3289,20.6387 42.4294,32.0872 12.8792,9.7645 26.9769,20.1182 39.3715,31.8253 12.3535,11.6682 23.0152,24.6808 30.5425,38.9282 4.3603,8.2529 7.6689,16.9202 10.0944,25.7377 3.175,11.5416 4.837,23.3407 4.837,35.1695 v 29.2663 c 0.1782,5.6235 -2.8645,12.3888 -8.4186,17.0475 -5.5541,4.6587 -13.6197,7.2109 -20.3241,7.0614 z"
         stroke="#000000"
         stroke-width="0.24"
         fill-opacity="0"
         id="path1-6"
         style="stroke-width:14.1732;stroke-dasharray:none" /></g></g></svg>

﻿<?xml version="1.0" encoding="UTF-8" standalone="no"?>
<!DOCTYPE svg PUBLIC "-//W3C//DTD SVG 1.1//EN" "http://www.w3.org/Graphics/SVG/1.1/DTD/svg11.dtd">
<svg width="1008pt" height="612pt" viewBox="0 0 1008 612" overflow="visible" version="1.1" xmlns="http://www.w3.org/2000/svg">
  <path d="M516.9994,451.7175 L258.3157,451.7175 C251.6114,451.867 243.5458,449.3148 237.9917,444.6561 C232.4375,439.9974 229.3949,433.2321 229.5731,427.6086 L229.5731,398.3423 C229.5731,386.5135 231.2351,374.7144 234.41,363.1728 C236.8356,354.3553 240.1441,345.688 244.5044,337.4351 C252.0317,323.1877 262.6935,310.1751 275.047,298.5069 C287.4416,286.7998 301.5393,276.4461 314.4185,266.6816 C329.519,255.2331 342.9445,244.5944 356.8479,234.5944 C388.5137,211.8185 422.6582,192.3553 516.9994,132.2186 C611.3406,192.3553 645.485,211.8185 677.1509,234.5944 C691.0543,244.5944 704.4798,255.2331 719.5803,266.6816 C732.4595,276.4461 746.5572,286.7998 758.9518,298.5069 C771.3053,310.1751 781.967,323.1877 789.4943,337.4351 C793.8546,345.688 797.1632,354.3553 799.5887,363.1728 C802.7637,374.7144 804.4257,386.5135 804.4257,398.3423 L804.4257,427.6086 C804.6039,433.2321 801.5612,439.9974 796.0071,444.6561 C790.453,449.3148 782.3874,451.867 775.683,451.7175 z" stroke="#000000" stroke-width="0.24" fill-opacity="0" />
</svg>
